X: 19142
T: Irish Washerwoman, The
R: reel
M: 4/4
K: Gmajor
dc|:BGGB (3DDD DG|BGB^c ~d3B|cAAd FAAG|FDFA edcd|
BGGB DGGA|(3BAG B^c ~d3B|cedc B^cdB|1 AGFA GDdc:|2 AGFA GABd||
|:gzgf d^cdf|~g3a bgag|faaf dfaf|Adfg agf=f|(3eee ge dfgf|
efge dcBd|1 (3ccc dc B^cdB|AGFA GABd:|2 (3ccc dc B^cdz|!>!DD z !>!DD z dc||

